icons/midnadark/actions/24/insert-page-break.svg

<svg xmlns="http://www.w3.org/2000/svg" viewBox="0 0 22 22"><g transform="translate(0-1030.36)"><path transform="translate(-1 1029.36)" d="m5 4v6h14v-1-5h-1-12-1m1 1h12v4h-12v-4m-1 8v1 6h1 8 1l4-4v-1.406-.594-1h-14m1 1h12v1h-4v1 3h-8v-5z" fill="#f2f2f2"/><g fill="#1d99f3" color="#000" stroke-width="1"><path d="m5 1040.36h2v1h-2z"/><path d="m10 1040.36h2v1h-2z"/><path d="m15 1040.36h2v1h-2z"/></g></g></svg>

<?xml version="1.0" encoding="UTF-8" standalone="no"?>
<!-- Created with Inkscape (http://www.inkscape.org/) -->

<svg
   xmlns:dc="http://purl.org/dc/elements/1.1/"
   xmlns:cc="http://creativecommons.org/ns#"
   xmlns:rdf="http://www.w3.org/1999/02/22-rdf-syntax-ns#"
   xmlns:svg="http://www.w3.org/2000/svg"
   xmlns="http://www.w3.org/2000/svg"
   xmlns:sodipodi="http://sodipodi.sourceforge.net/DTD/sodipodi-0.dtd"
   xmlns:inkscape="http://www.inkscape.org/namespaces/inkscape"
   width="22"
   height="22"
   id="svg3049"
   version="1.1"
   inkscape:version="0.91 r13725"
   sodipodi:docname=" 	insert-page-break .svg"
   inkscape:export-filename="/home/uri/.kde/share/icons/NITRUX-KDE/16x16/actions/view-right-new.png"
   inkscape:export-xdpi="30"
   inkscape:export-ydpi="30">
  <defs
     id="defs3051">
    <style
       type="text/css"
       id="current-color-scheme">
      .ColorScheme-Text {
        color:#f2f2f2;
      }
      .ColorScheme-Background {
        color:#eff0f1;
      }
      .ColorScheme-Highlight {
        color:#3daee9;
      }
      .ColorScheme-ViewText {
        color:#31363b;
      }
      .ColorScheme-ViewBackground {
        color:#fcfcfc;
      }
      .ColorScheme-ViewHover {
        color:#93cee9;
      }
      .ColorScheme-ViewFocus{
        color:#3daee9;
      }
      .ColorScheme-ButtonText {
        color:#31363b;
      }
      .ColorScheme-ButtonBackground {
        color:#eff0f1;
      }
      .ColorScheme-ButtonHover {
        color:#93cee9;
      }
      .ColorScheme-ButtonFocus{
        color:#3daee9;
      }
      </style>
  </defs>
  <sodipodi:namedview
     id="base"
     pagecolor="#ffffff"
     bordercolor="#666666"
     borderopacity="1.0"
     inkscape:pageopacity="0.0"
     inkscape:pageshadow="2"
     inkscape:zoom="12.832921"
     inkscape:cx="15.679311"
     inkscape:cy="11.096649"
     inkscape:document-units="px"
     inkscape:current-layer="layer1"
     showgrid="true"
     fit-margin-top="0"
     fit-margin-left="0"
     fit-margin-right="0"
     fit-margin-bottom="0"
     inkscape:window-width="956"
     inkscape:window-height="1013"
     inkscape:window-x="-4"
     inkscape:window-y="0"
     inkscape:window-maximized="0"
     inkscape:showpageshadow="false"
     borderlayer="true">
    <sodipodi:guide
       position="2.0000044,20.00003"
       orientation="18,0"
       id="guide4067" />
    <sodipodi:guide
       position="2.0000044,2.0000296"
       orientation="0,18"
       id="guide4069" />
    <sodipodi:guide
       position="20.000004,2.0000296"
       orientation="-18,0"
       id="guide4071" />
    <sodipodi:guide
       position="20.000004,20.00003"
       orientation="0,-18"
       id="guide4073" />
    <sodipodi:guide
       position="3.0000044,19.00003"
       orientation="16,0"
       id="guide4077" />
    <sodipodi:guide
       position="3.0000044,3.0000296"
       orientation="0,16"
       id="guide4079" />
    <sodipodi:guide
       position="19.000004,3.0000296"
       orientation="-16,0"
       id="guide4081" />
    <sodipodi:guide
       position="19.000004,19.00003"
       orientation="0,-16"
       id="guide4083" />
    <inkscape:grid
       type="xygrid"
       id="grid4085" />
    <sodipodi:guide
       position="11.000004,18.999969"
       orientation="0,-6"
       id="guide4175" />
    <sodipodi:guide
       position="9.9999739,18.999969"
       orientation="0,-4.9999695"
       id="guide4201" />
  </sodipodi:namedview>
  <metadata
     id="metadata3054">
    <rdf:RDF>
      <cc:Work
         rdf:about="">
        <dc:format>image/svg+xml</dc:format>
        <dc:type
           rdf:resource="http://purl.org/dc/dcmitype/StillImage" />
        <dc:title></dc:title>
      </cc:Work>
    </rdf:RDF>
  </metadata>
  <g
     inkscape:label="Capa 1"
     inkscape:groupmode="layer"
     id="layer1"
     transform="translate(-421.71429,-525.79074)">
    <g
       transform="translate(421.71429,-504.57146)"
       id="layer1-1"
       inkscape:label="Capa 1">
      <path
         id="rect4139"
         transform="translate(-1,1029.3622)"
         d="M 5,4 5,10 19,10 19,9 19,4 18,4 6,4 5,4 Z M 6,5 18,5 18,9 6,9 6,5 Z m -1,8 0,1 0,6 1,0 8,0 1,0 4,-4 0,-1.40625 L 19,14 19,13 5,13 Z m 1,1 12,0 0,1 -4,0 0,1 0,3 -8,0 0,-5 z"
         style="fill:#f2f2f2;fill-opacity:1;stroke:none"
         inkscape:connector-curvature="0" />
      <rect
         transform="translate(-1,1029.3622)"
         y="11.000017"
         x="6"
         height="1"
         width="2"
         id="rect3000"
         style="color:#000000;display:inline;overflow:visible;visibility:visible;fill:#1d99f3;fill-opacity:1;fill-rule:nonzero;stroke:none;stroke-width:2;marker:none;enable-background:accumulate" />
      <rect
         transform="translate(-1,1029.3622)"
         y="11.000017"
         x="11"
         height="1"
         width="2"
         id="rect3002"
         style="color:#000000;display:inline;overflow:visible;visibility:visible;fill:#1d99f3;fill-opacity:1;fill-rule:nonzero;stroke:none;stroke-width:2;marker:none;enable-background:accumulate" />
      <rect
         transform="translate(-1,1029.3622)"
         y="11.000017"
         x="16"
         height="1"
         width="2"
         id="rect3004"
         style="color:#000000;display:inline;overflow:visible;visibility:visible;fill:#1d99f3;fill-opacity:1;fill-rule:nonzero;stroke:none;stroke-width:2;marker:none;enable-background:accumulate" />
    </g>
  </g>
</svg>
